carriers/econt.svg

<svg width="128" height="64" viewBox="0 0 128 64" fill="none" xmlns="http://www.w3.org/2000/svg">
<rect width="128" height="64" rx="6" fill="#1A1A1A"/>
<path d="M111.598 21.7306H98.1879C97.4344 21.7488 96.7117 22.0332 96.148 22.5336C95.5843 23.0339 95.216 23.7177 95.1086 24.4638C95.0043 25.0744 95.1467 25.7015 95.5046 26.2072C95.8625 26.7129 96.4066 27.0558 97.0172 27.1604C97.1678 27.1846 97.3202 27.1953 97.4727 27.1923H101.24L99.6137 39.5507C99.5029 40.2078 99.6575 40.8821 100.044 41.4254C100.43 41.9686 101.016 42.3363 101.673 42.4478C101.835 42.4743 102 42.485 102.165 42.4797C102.974 42.458 103.749 42.1529 104.356 41.6176C104.963 41.0822 105.363 40.3507 105.485 39.5507L107.116 27.1923H110.888C111.641 27.1742 112.364 26.8897 112.928 26.3894C113.492 25.8891 113.86 25.2052 113.967 24.4592C114.07 23.8492 113.927 23.2233 113.569 22.7186C113.212 22.214 112.668 21.8718 112.059 21.7671C111.907 21.7412 111.753 21.729 111.598 21.7306V21.7306Z" fill="white"/>
<path d="M29.3768 21.7306H19.3006C18.4911 21.7536 17.7154 22.0606 17.1092 22.5976C16.503 23.1347 16.1048 23.8678 15.9844 24.6687L14.0348 39.3274C13.98 39.6538 13.99 39.9877 14.0643 40.3101C14.1386 40.6326 14.2756 40.9373 14.4677 41.2067C14.6597 41.4762 14.903 41.7052 15.1836 41.8806C15.4641 42.056 15.7765 42.1744 16.1029 42.2291C16.264 42.255 16.4271 42.2672 16.5903 42.2656H26.6437C27.3966 42.244 28.118 41.9584 28.6818 41.4588C29.2455 40.9592 29.6157 40.2773 29.7276 39.5324C29.8305 38.9212 29.687 38.2942 29.3283 37.7886C28.9697 37.2831 28.4252 36.9405 27.8144 36.8357C27.6638 36.8111 27.5113 36.8004 27.3588 36.8038H20.2299L21.5054 27.1741H28.6389C29.3924 27.1559 30.1151 26.8715 30.6788 26.3711C31.2425 25.8708 31.6107 25.187 31.7182 24.441C31.8211 23.8303 31.6774 23.2038 31.3187 22.699C30.9599 22.1942 30.4155 21.8525 29.805 21.7488C29.6629 21.7325 29.5198 21.7265 29.3768 21.7306Z" fill="white"/>
<path d="M25.7281 35.2459C27.5219 35.2459 28.976 33.7918 28.976 31.9981C28.976 30.2043 27.5219 28.7502 25.7281 28.7502C23.9343 28.7502 22.4802 30.2043 22.4802 31.9981C22.4802 33.7918 23.9343 35.2459 25.7281 35.2459Z" fill="white"/>
<path d="M90.991 21.5211C90.1837 21.546 89.4106 21.8532 88.8064 22.3892C88.2022 22.9252 87.805 23.6561 87.6839 24.4546L87.078 29.0645H80.9877L81.5981 24.4546C81.6623 24.0862 81.6432 23.7081 81.5423 23.3481C81.4413 22.988 81.2611 22.6551 81.0147 22.3738C80.7683 22.0925 80.4621 21.8699 80.1185 21.7223C79.7749 21.5748 79.4026 21.506 79.0289 21.5211C78.2202 21.5436 77.4449 21.849 76.8382 22.3842C76.2314 22.9194 75.8315 23.6505 75.7082 24.4501L73.7267 39.537C73.6159 40.1942 73.7705 40.8685 74.1565 41.4117C74.5426 41.9549 75.1286 42.3227 75.7856 42.4341C75.9539 42.4649 76.1248 42.4786 76.2958 42.4751C77.1046 42.4526 77.8798 42.1472 78.4866 41.612C79.0934 41.0768 79.4932 40.3457 79.6166 39.5461L80.2771 34.5354H86.3537L85.6978 39.5461C85.643 39.8718 85.6529 40.2052 85.7269 40.5271C85.801 40.849 85.9377 41.1531 86.1293 41.4222C86.321 41.6912 86.5637 41.9199 86.8437 42.0951C87.1238 42.2703 87.4356 42.3886 87.7613 42.4432C87.9223 42.4699 88.0856 42.4805 88.2487 42.4751C89.0575 42.4526 89.8327 42.1472 90.4395 41.612C91.0463 41.0768 91.4461 40.3457 91.5695 39.5461L93.5556 24.4592C93.6664 23.802 93.5117 23.1277 93.1257 22.5845C92.7396 22.0413 92.1537 21.6735 91.4966 21.5621C91.33 21.5301 91.1605 21.5164 90.991 21.5211V21.5211Z" fill="white"/>
<path d="M63.0401 21.5211C56.7402 21.5211 52.0346 25.4386 51.1965 31.9981C50.3583 38.5576 54.0025 42.4751 60.3069 42.4751C66.6114 42.4751 71.2395 38.5986 72.1505 31.9981C73.0616 25.3976 69.3399 21.5211 63.0401 21.5211ZM66.2743 31.9981C65.8461 35.246 63.8327 37.0088 61.0039 37.0088C58.1751 37.0088 56.6309 35.2277 57.0545 31.9981C57.4781 28.7684 59.4414 26.9873 62.3203 26.9873C65.1992 26.9873 66.6934 28.7502 66.2743 31.9981Z" fill="white"/>
<path d="M63.0401 21.5211C56.7402 21.5211 52.0346 25.4386 51.1965 31.9981C50.3583 38.5576 54.0025 42.4751 60.3069 42.4751C66.6114 42.4751 71.2395 38.5986 72.1505 31.9981C73.0616 25.3976 69.3399 21.5211 63.0401 21.5211ZM66.2743 31.9981C65.8461 35.246 63.8327 37.0088 61.0039 37.0088C58.1751 37.0088 56.6309 35.2277 57.0545 31.9981C57.4781 28.7684 59.4414 26.9873 62.3203 26.9873C65.1992 26.9873 66.6934 28.7502 66.2743 31.9981Z" fill="white"/>
<path d="M48.9096 21.5211C48.0798 21.5313 47.285 21.857 46.6867 22.4321V22.4321L46.6411 22.4686L39.5805 29.1329L40.2 24.4501C40.2632 24.0832 40.2438 23.7068 40.1433 23.3484C40.0427 22.9899 39.8636 22.6584 39.6188 22.3779C39.3741 22.0973 39.0699 21.8749 38.7284 21.7267C38.3869 21.5785 38.0166 21.5082 37.6445 21.5211C36.8363 21.5438 36.0617 21.8494 35.4556 22.3846C34.8496 22.9199 34.4507 23.6508 34.3283 24.4501L32.3468 39.5415C32.2356 40.196 32.3878 40.868 32.7701 41.4107C33.1524 41.9534 33.7338 42.323 34.3875 42.4387C34.5501 42.4652 34.7149 42.4758 34.8795 42.4706C35.6883 42.448 36.4635 42.1426 37.0703 41.6074C37.6771 41.0722 38.0769 40.3412 38.2003 39.5415L38.879 34.4078L44.6505 41.4866L44.6778 41.5185L44.7234 41.5732C44.9682 41.8503 45.271 42.0703 45.6102 42.2175C45.9495 42.3647 46.317 42.4356 46.6867 42.425C47.482 42.405 48.2451 42.1069 48.8434 41.5826C49.4418 41.0583 49.8375 40.341 49.9619 39.5552C50.0189 39.1903 49.9955 38.8173 49.8932 38.4625C49.7909 38.1076 49.6122 37.7794 49.3697 37.5008V37.5008L44.409 31.7703L50.2762 26.4908C50.9114 25.9651 51.3273 25.221 51.4423 24.4045C51.4971 24.0847 51.4883 23.7572 51.4162 23.4409C51.3442 23.1245 51.2103 22.8254 51.0224 22.5609C50.8345 22.2964 50.5962 22.0716 50.3212 21.8994C50.0461 21.7272 49.7398 21.611 49.4198 21.5575C49.2516 21.5262 49.0805 21.514 48.9096 21.5211V21.5211Z" fill="white"/>
</svg>

<svg xmlns="http://www.w3.org/2000/svg" width="128" height="64" fill="none"><rect width="128" height="64" fill="#1A1A1A" rx="6"/><path fill="#fff" d="M111.598 21.73h-13.41a3.189 3.189 0 0 0-3.08 2.734 2.337 2.337 0 0 0 2.365 2.728h3.767l-1.626 12.359a2.513 2.513 0 0 0 2.551 2.929 3.452 3.452 0 0 0 3.32-2.93l1.631-12.358h3.772a3.19 3.19 0 0 0 3.079-2.733 2.336 2.336 0 0 0-1.908-2.692 2.583 2.583 0 0 0-.461-.036ZM29.377 21.73H19.3a3.453 3.453 0 0 0-3.317 2.939l-1.95 14.658a2.519 2.519 0 0 0 2.069 2.902c.161.026.324.038.487.037h10.054a3.212 3.212 0 0 0 3.084-2.734 2.342 2.342 0 0 0-2.37-2.728H20.23l1.275-9.63h7.134a3.189 3.189 0 0 0 3.08-2.733 2.337 2.337 0 0 0-1.914-2.692 3.002 3.002 0 0 0-.428-.018Z"/><path fill="#fff" d="M25.728 35.246a3.248 3.248 0 1 0 0-6.496 3.248 3.248 0 0 0 0 6.496ZM90.991 21.521a3.452 3.452 0 0 0-3.307 2.934l-.606 4.61h-6.09l.61-4.61a2.506 2.506 0 0 0-2.57-2.934 3.457 3.457 0 0 0-3.32 2.93l-1.981 15.086a2.515 2.515 0 0 0 2.059 2.897c.168.03.339.045.51.041a3.457 3.457 0 0 0 3.32-2.929l.661-5.01h6.077l-.656 5.01a2.516 2.516 0 0 0 2.063 2.897c.161.027.325.038.488.032a3.457 3.457 0 0 0 3.32-2.929l1.987-15.087a2.515 2.515 0 0 0-2.06-2.897 2.337 2.337 0 0 0-.505-.04ZM63.04 21.521c-6.3 0-11.005 3.918-11.843 10.477-.839 6.56 2.805 10.477 9.11 10.477 6.304 0 10.933-3.876 11.843-10.477.912-6.6-2.81-10.477-9.11-10.477Zm3.234 10.477c-.428 3.248-2.441 5.01-5.27 5.01-2.829 0-4.373-1.78-3.95-5.01.424-3.23 2.387-5.01 5.266-5.01 2.88 0 4.373 1.762 3.954 5.01Z"/><path fill="#fff" d="M63.04 21.521c-6.3 0-11.005 3.918-11.843 10.477-.839 6.56 2.805 10.477 9.11 10.477 6.304 0 10.933-3.876 11.843-10.477.912-6.6-2.81-10.477-9.11-10.477Zm3.234 10.477c-.428 3.248-2.441 5.01-5.27 5.01-2.829 0-4.373-1.78-3.95-5.01.424-3.23 2.387-5.01 5.266-5.01 2.88 0 4.373 1.762 3.954 5.01ZM48.91 21.521c-.83.01-1.625.336-2.223.911l-.046.037-7.06 6.664.619-4.683a2.505 2.505 0 0 0-2.556-2.929 3.453 3.453 0 0 0-3.316 2.93l-1.981 15.09a2.515 2.515 0 0 0 2.04 2.898c.163.026.328.037.492.032a3.458 3.458 0 0 0 3.321-2.93l.679-5.133 5.772 7.079.027.032.045.054a2.524 2.524 0 0 0 1.964.852 3.402 3.402 0 0 0 3.275-2.87 2.533 2.533 0 0 0-.592-2.054l-4.961-5.73 5.867-5.28a3.307 3.307 0 0 0 1.166-2.087 2.464 2.464 0 0 0-2.022-2.846 2.273 2.273 0 0 0-.51-.037Z"/></svg>
